Adwaita++/mimetypes/scalable/shellscript.svg

<svg height="256" viewBox="0 0 67.73 67.73" width="256" xmlns="http://www.w3.org/2000/svg" xmlns:xlink="http://www.w3.org/1999/xlink">
  <filter id="filter16020" color-interpolation-filters="sRGB" height="1.021433" width="1.027265" x="-.013633" y="-.010717">
    <feGaussianBlur stdDeviation="2.0004419"/>
  </filter>
  <g enable-background="new" stroke-width=".25" transform="matrix(.13297834 0 0 .13297834 .605824 28.614877)">
    <path d="m111.82842-178.55025h200l120.17158 119.671571.005 296.240039c.00031 17.728-14.44878 32.08839-32.17678 32.08839h-288c-17.72799 0-31.999992-14.272-31.999992-32v-384c0-17.728 14.272002-32 31.999992-32z" filter="url(#filter16020)" opacity=".4"/>
    <path d="m111.82842-179.67158h200l120.17158 119.67158.005 296.24003c.00031 17.728-14.44878 32.08839-32.17678 32.08839h-288c-17.727992 0-31.999992-14.272-31.999992-32v-384c0-17.728 14.272-32 31.999992-32z" fill="#4f4f4f"/>
    <path d="m311.82842-171.71328v88.000006c0 17.728 14.44211 31.693795 32.17011 31.693795l88.00147-.022223z" opacity=".2"/>
    <path d="m311.82842-179.67158v88.000008c0 17.728 14.44211 31.693795 32.17011 31.693795l88.00147-.022223z" fill="#696969"/>
  </g>
  <g stroke-width="1.170724">
    <path d="m28.904306 18.936622h-1.170722v1.170722h1.170722zm0-7.024342h-1.170722v5.85362h1.170722zm-9.365787 2.341448h2.341444v3.512172h-2.341444zm-1.170727-2.341448v1.170723h-1.170722v1.170725h1.170722v3.512172h-1.170722v1.170722h1.170722v1.170722h1.170727v-1.170722h2.341444v1.170722h1.170727v-1.170722h1.170722v-1.170722h-1.170722v-3.512172h1.170722v-1.170725h-1.170722v-1.170723h-1.170727v1.170723h-2.341444v-1.170723z" opacity=".2"/>
    <path d="m28.904306 17.7659h-1.170722v1.170722h1.170722zm0-7.024342h-1.170722v5.853616h1.170722zm-9.365787 2.341445h2.341444v3.512171h-2.341444zm-1.170727-2.341445v1.170722h-1.170722v1.170723h1.170722v3.512171h-1.170722v1.170726h1.170722v1.170722h1.170727v-1.170722h2.341444v1.170722h1.170727v-1.170722h1.170722v-1.170726h-1.170722v-3.512171h1.170722v-1.170723h-1.170722v-1.170722h-1.170727v1.170722h-2.341444v-1.170722z" fill="#fff"/>
  </g>
</svg>

<?xml version="1.0" encoding="UTF-8" standalone="no"?>
<svg
   xmlns:dc="http://purl.org/dc/elements/1.1/"
   xmlns:cc="http://creativecommons.org/ns#"
   xmlns:rdf="http://www.w3.org/1999/02/22-rdf-syntax-ns#"
   xmlns:svg="http://www.w3.org/2000/svg"
   xmlns="http://www.w3.org/2000/svg"
   xmlns:sodipodi="http://sodipodi.sourceforge.net/DTD/sodipodi-0.dtd"
   xmlns:inkscape="http://www.inkscape.org/namespaces/inkscape"
   width="256"
   height="256"
   version="1.1"
   viewBox="0 0 67.73 67.73"
   id="svg37"
   sodipodi:docname="shellscript.svg"
   inkscape:version="0.92.3 (2405546, 2018-03-11)">
  <metadata
     id="metadata41">
    <rdf:RDF>
      <cc:Work
         rdf:about="">
        <dc:format>image/svg+xml</dc:format>
        <dc:type
           rdf:resource="http://purl.org/dc/dcmitype/StillImage" />
        <dc:title></dc:title>
      </cc:Work>
    </rdf:RDF>
  </metadata>
  <sodipodi:namedview
     pagecolor="#ffffff"
     bordercolor="#666666"
     borderopacity="1"
     objecttolerance="10"
     gridtolerance="10"
     guidetolerance="10"
     inkscape:pageopacity="0"
     inkscape:pageshadow="2"
     inkscape:window-width="1920"
     inkscape:window-height="1009"
     id="namedview39"
     showgrid="false"
     inkscape:zoom="3.2617188"
     inkscape:cx="7.5113795"
     inkscape:cy="128"
     inkscape:window-x="0"
     inkscape:window-y="34"
     inkscape:window-maximized="1"
     inkscape:current-layer="svg37" />
  <defs
     id="defs17">
    <linearGradient
       id="linearGradient4226"
       x1="529.655"
       x2="-35.31"
       y1="401.584"
       y2="119.093"
       gradientTransform="matrix(0 -.11988932 .11988589 0 .36278001 292.54831)"
       gradientUnits="userSpaceOnUse">
      <stop
         style="stop-color:#f2f2f2"
         offset="0"
         id="stop2" />
      <stop
         style="stop-color:#f9f9f9"
         offset="1"
         id="stop4" />
    </linearGradient>
    <linearGradient
       id="linearGradient4358"
       x1="88"
       x2="488"
       y1="88"
       y2="488"
       gradientUnits="userSpaceOnUse">
      <stop
         style="stop-color:#000000;stop-opacity:.58823532"
         offset="0"
         id="stop7" />
      <stop
         style="stop-color:#000000;stop-opacity:0"
         offset=".88"
         id="stop9" />
      <stop
         style="stop-color:#000000"
         offset="1"
         id="stop11" />
    </linearGradient>
    <filter
       id="filter4346"
       x="-.01"
       y="-.01"
       width="1.026"
       height="1.022"
       style="color-interpolation-filters:sRGB">
      <feGaussianBlur
         stdDeviation="2.12"
         id="feGaussianBlur14" />
    </filter>
    <filter
       inkscape:collect="always"
       style="color-interpolation-filters:sRGB"
       id="filter16020"
       x="-0.013632531"
       width="1.0272651"
       y="-0.010716653"
       height="1.0214334">
      <feGaussianBlur
         inkscape:collect="always"
         stdDeviation="2.0004419"
         id="feGaussianBlur16022" />
    </filter>
    <clipPath
       clipPathUnits="userSpaceOnUse"
       id="clipPath18689">
      <rect
         clip-path="none"
         transform="rotate(45)"
         ry="32.000008"
         rx="32.000008"
         y="123.9986"
         x="486.03726"
         height="362.94299"
         width="362.94299"
         id="rect18691"
         style="display:inline;opacity:1;vector-effect:none;fill:#4a86cf;fill-opacity:1;stroke:none;stroke-width:26.06693268;stroke-linecap:butt;stroke-linejoin:miter;stroke-miterlimit:4;stroke-dasharray:none;stroke-dashoffset:0;stroke-opacity:1;marker:none;marker-start:none;marker-mid:none;marker-end:none;paint-order:normal;enable-background:new" />
    </clipPath>
  </defs>
  <g
     transform="matrix(0.13297834,0,0,0.13297834,0.60582436,28.614877)"
     style="display:inline;stroke-width:0.25;enable-background:new"
     id="g17498">
    <path
       style="display:inline;opacity:0.4;fill:#000000;fill-opacity:1;stroke:none;stroke-width:0.5;stroke-linejoin:round;stroke-miterlimit:4;stroke-dasharray:none;stroke-opacity:1;filter:url(#filter16020);enable-background:new"
       clip-path="none"
       d="m 111.82842,-178.55025 h 200 L 432,-58.878679 432.005,237.36136 c 3.1e-4,17.728 -14.44878,32.08839 -32.17678,32.08839 h -288 c -17.72799,0 -31.999992,-14.272 -31.999992,-32 v -384 c 0,-17.728 14.272002,-32 31.999992,-32 z"
       id="path6869"
       inkscape:connector-curvature="0"
       sodipodi:nodetypes="sccssssss" />
    <path
       sodipodi:nodetypes="sccssssss"
       inkscape:connector-curvature="0"
       id="rect2069"
       d="m 111.82842,-179.67158 h 200 L 432,-60 l 0.005,296.24003 c 3.1e-4,17.728 -14.44878,32.08839 -32.17678,32.08839 h -288 c -17.727992,0 -31.999992,-14.272 -31.999992,-32 v -384 c 0,-17.728 14.272,-32 31.999992,-32 z"
       clip-path="none"
       style="display:inline;opacity:1;fill:#4f4f4f;fill-opacity:1;stroke:none;stroke-width:0.5;stroke-linejoin:round;stroke-miterlimit:4;stroke-dasharray:none;stroke-opacity:1;enable-background:new" />
    <path
       inkscape:connector-curvature="0"
       style="display:inline;opacity:0.2;vector-effect:none;fill:#000000;fill-opacity:1;stroke:none;stroke-width:0.5;stroke-linecap:butt;stroke-linejoin:round;stroke-miterlimit:4;stroke-dasharray:none;stroke-dashoffset:0;stroke-opacity:1;enable-background:new"
       d="m 311.82842,-171.71328 v 88.000006 c 0,17.728 14.44211,31.693795 32.17011,31.693795 L 432,-52.041702 Z"
       id="path1784"
       sodipodi:nodetypes="csccc" />
    <path
       sodipodi:nodetypes="csccc"
       id="rect26812"
       d="m 311.82842,-179.67158 v 88.000008 c 0,17.728 14.44211,31.693795 32.17011,31.693795 L 432,-60 Z"
       style="display:inline;opacity:1;vector-effect:none;fill:#696969;fill-opacity:1;stroke:none;stroke-width:0.5;stroke-linecap:butt;stroke-linejoin:round;stroke-miterlimit:4;stroke-dasharray:none;stroke-dashoffset:0;stroke-opacity:1;enable-background:new"
       inkscape:connector-curvature="0" />
  </g>
  <path
     inkscape:connector-curvature="0"
     style="opacity:0.2;stroke-width:1.1707238"
     d="m 28.904306,18.936622 h -1.170722 v 1.170722 h 1.170722 z m 0,-7.024342 h -1.170722 v 5.85362 h 1.170722 z m -9.365787,2.341448 h 2.341444 V 17.7659 H 19.538519 Z M 18.367792,11.91228 v 1.170723 H 17.19707 v 1.170725 h 1.170722 V 17.7659 H 17.19707 v 1.170722 h 1.170722 v 1.170722 h 1.170727 v -1.170722 h 2.341444 v 1.170722 h 1.170727 v -1.170722 h 1.170722 V 17.7659 H 23.05069 v -3.512172 h 1.170722 V 13.083003 H 23.05069 V 11.91228 h -1.170727 v 1.170723 H 19.538519 V 11.91228 Z"
     id="path10" />
  <path
     inkscape:connector-curvature="0"
     style="fill:#ffffff;stroke-width:1.1707238"
     d="m 28.904306,17.7659 h -1.170722 v 1.170722 h 1.170722 z m 0,-7.024342 h -1.170722 v 5.853616 h 1.170722 z m -9.365787,2.341445 h 2.341444 v 3.512171 H 19.538519 Z M 18.367792,10.741558 V 11.91228 H 17.19707 v 1.170723 h 1.170722 v 3.512171 H 17.19707 V 17.7659 h 1.170722 v 1.170722 h 1.170727 V 17.7659 h 2.341444 v 1.170722 H 23.05069 V 17.7659 h 1.170722 V 16.595174 H 23.05069 v -3.512171 h 1.170722 V 11.91228 H 23.05069 v -1.170722 h -1.170727 v 1.170722 h -2.341444 v -1.170722 z"
     id="path12" />
</svg>
